!! 00000] TT[00
!! NN
!!!OTL: Jianjue baoming qu dangbing
!!!ARE: Asia, China,ÿHebei, Shenxian
!! Ethnic Group: Han
!! IV, 44, 1)
!!!SCT: C0372
!!!YEM: Copyright 1995, estate of Helmut Schaffrath.
**kern
*ICvox
*Ivox
*M2/4
*k[]
*C:
{8cc
16cc
16e
4g
=1
8cc
16ee
16dd
4cc
=2
8cc
8ee
8dd
8cc
=3
8.cc
16e
4g}
=4
{8dd
8cc
8dd
8cc
=5
16a
16g
16a
16cc
8g
8g
=6
8g
8cc
8cc
8e
=7
8.e
16d
4c}
=8
{8g
8e
8d
16e
16e
=9
8g
8e
4g
=10
8g
8cc
8cc
8e
=11
8.e
16d
4c}
==
!!!AGN: Xiaodiao, Shidiao, Jiandianhua diao. Geming lishi minge
!! Variante, weil der Rhythmus praktisch alla breve genommen wird.
!!    Vereinzelt Verzierungen.
!!!ONB: ESAC (Essen Associative Code) Database: CHINA
!!!AMT: simple duple
!!!AIN: vox
!!!EED: Helmut Schaffrath
!!!EEV: 1.0
*-
